X: 10102
M: 3/8
L: 1/8
K: Bb
|:\
f4 d>f | e4 c>A | B>dc>ed>f | (f2e2)d2 |\
(c3 d/)e/ (f/e/d/c/) | B2A2B2 | c>dec dB | (dc)(BA)(GF) |\
f4 d>f | e4 c>A |
(G3 A/B/) (3(cde) | (F3 G/A/) (3(Bcd) | (3(edc) d2 Tc2 | {c}B6 :|\
|:\
d2(d2c2) | cB B2 (3(Bcd) | e2(e2d2) | (dc)c4 |\
(e2d2)g2 |
f2(A2B2) | c>dec dB | (dc)(BA)(GF) |\
f4 (d>f) | e4 (cA) | B>dc>ed>f | (f2e2)d2 |\
(G3 A/B/) (3(cde) | F3 G/A/ (3(Bcd) | (3(edc) d2c2 | B6 :|


